src/assets/filled/SmsSearch.svg

<svg width="24" height="24" viewBox="0 0 24 24"  xmlns="http://www.w3.org/2000/svg">
<path d="M17 3H7C4 3 2 4.5 2 8V15.96C2 18.25 3.85 20.1 6.14 20.1H12.4C12.98 20.1 13.48 19.61 13.42 19.03C13.28 17.5 13.78 15.85 15.14 14.52C15.7 13.97 16.39 13.55 17.14 13.31C18.39 12.91 19.6 12.96 20.67 13.33C21.32 13.55 22 13.08 22 12.39V8C22 4.5 20 3 17 3ZM17.47 8.59L14.34 11.09C13.68 11.62 12.84 11.88 12 11.88C11.16 11.88 10.31 11.62 9.66 11.09L6.53 8.59C6.21 8.33 6.16 7.86 6.41 7.53C6.67 7.21 7.14 7.15 7.46 7.41L10.59 9.91C11.35 10.52 12.64 10.52 13.4 9.91L16.53 7.41C16.85 7.15 17.33 7.2 17.58 7.53C17.84 7.86 17.79 8.33 17.47 8.59Z" />
<path d="M22.65 21.4499L21.9 20.6999C22.29 20.1099 22.52 19.3999 22.52 18.6399C22.52 16.5599 20.84 14.8799 18.76 14.8799C16.68 14.8799 15 16.5599 15 18.6299C15 20.6999 16.68 22.3899 18.76 22.3899C19.52 22.3899 20.23 22.1599 20.82 21.7699L21.57 22.5199C21.72 22.6699 21.91 22.7399 22.11 22.7399C22.31 22.7399 22.5 22.6699 22.65 22.5199C22.95 22.2299 22.95 21.7499 22.65 21.4499Z" />
</svg>

<?xml version="1.0" encoding="UTF-8"?>
<svg width="24" height="24" viewBox="0 0 24 24" xmlns="http://www.w3.org/2000/svg">
 <path d="m17 3h-10c-3 0-5 1.5-5 5v7.96c0 2.29 1.85 4.14 4.14 4.14h6.26c0.58 0 1.08-0.49 1.02-1.07-0.14-1.53 0.36-3.18 1.72-4.51 0.56-0.55 1.25-0.97 2-1.21 1.25-0.4 2.46-0.35 3.53 0.02 0.65 0.22 1.33-0.25 1.33-0.94v-4.39c0-3.5-2-5-5-5zm0.47 5.59-3.13 2.5c-0.66 0.53-1.5 0.79-2.34 0.79s-1.69-0.26-2.34-0.79l-3.13-2.5c-0.32-0.26-0.37-0.73-0.12-1.06 0.26-0.32 0.73-0.38 1.05-0.12l3.13 2.5c0.76 0.61 2.05 0.61 2.81 0l3.13-2.5c0.32-0.26 0.8-0.21 1.05 0.12 0.26 0.33 0.21 0.8-0.11 1.06z"/>
 <path d="m22.65 21.45-0.75-0.75c0.39-0.59 0.62-1.3 0.62-2.06 0-2.08-1.68-3.76-3.76-3.76s-3.76 1.68-3.76 3.75 1.68 3.76 3.76 3.76c0.76 0 1.47-0.23 2.06-0.62l0.75 0.75c0.15 0.15 0.34 0.22 0.54 0.22s0.39-0.07 0.54-0.22c0.3-0.29 0.3-0.77 0-1.07z"/>
</svg>
